X:1
T:35
T:Words: Lux illuxit lætabunda , 12th century sequence for the feast of St Olaf Norwegian translation: Bernt Støylen, 1923 Music: Predicasti Dei care, 12th century music for the feast of St Olaf
L:1/8
M:4/4
K:F
V:1 treble nm="Violin" snm="Vln."
V:1
 D2 (EF) (GF) (ED) | (FE) (DC) D2 !breath!D2 | D2 A,2 C2 D2 | F2 (GF) D2 !breath!C2 | %4
w: 1. Joy- ful * light * the *|land * en- * light- ened,|rad- iant light our|hearts have * bright- ened,|
w: 3. All the * saints * wish to|give * God * glo- ry.|To in- spi- re,|with their * sto- ry,|
w: 5. Just- ice * he * would *|bring * its * peo- ple,|build the land with|laws and * free- dom,|
 E2 D2 (FG) (3((FE)D) | C2 (DE) D4 || A2 B2 (3(AGF) G2 | A2 B2 (cB) !breath!A2 | d2 c2 (3(BAG) F2 | %9
w: light that e- ver mer- * its|thanks and * praise.|Chris- tians, raise * * your|voi- ces up * now,|praise your God * * with|
w: God's Church is * their * *|true de- * sire.|Do, then Mo- * * ther|Church, as they * do;|lift your song, * * the|
w: Chris- tian law, * that * *|is his * way.|God- less men * * take|arms a- gainst * him,|but he soo- * * ner|
 G2 (AB) c2 (B!breath!A) | A2 F2 G2 (3(FED) | C2 (DE) D4 |] d2 c2 (3((BA)G) F2 | %13
w: sin- cere * hearts now, *|hon- our Him in * *|wor- thy * ways!|2. All Christ's wit- * nes- ses|
w: saints en- * treat you, *|join your voice with * *|Hea- ven's * choir!|4. Here, where strife * * was|
w: risks life * and limb, *|ra- ther than God's * *|cause be- * tray.|6. Help us, Christ, * * to|
 G2 (AB) c2 !breath!A2 | d2 c2 (dc) A2 | F2 (GF) D2 !breath!C2 | D2 F2 A2 (FD) | C2 (DE) D4 || %18
w: have as- * cen- ded|to the mul- ti- tude|e- ver * splen- did,|gone to reap what *|they had * sown.|
w: ev- er * bur- ning,|toiled Saint O- * laf,|lit by * year- ning|for e- ter- nal *|life and * light.|
w: be in * this life|like your wit- nes- ses|were in * their strife,|who in death tri- *|um- phant * stand!|
 d2 c2 (3(BAG) F2 | G2 (AB) (c2 !breath!A2) | d2 c2 (dc) A2 | F2 (GF) (D2 !breath!C2) | %22
w: Earth- ly plea- * * sure|they for- * sook here,|end- less joy * they|now do * taste there,|
w: Now the Christ * * has|o- pened * his eyes.|They will see * light|from love's * sun- rise,|
w: When the de- * * vil|aims his * slings, *|keep us safe * be-|neath your * wings, *|
 D2 F2 A2 (FD) | C2 (DE) D4 |]1 (A2 G2) F4 | (GFED) (C2 D2) | (FGFE) (E2 D2) |] %27
w: as they sing a- *|round God's * throne.|A- * men,|a- * * * men, *|a- * * * men! *|
w: which will free the *|land from * night.||||
w: save us with your *|might- y * hand!||||

